X:1
T:Title
%%score ( 1 2 ) ( 3 4 )
L:1/8
Q:1/4=135
M:6/4
K:C
V:1 treble nm="Choir Aahs, Unnamed-000"
V:2 treble 
V:3 bass nm="Choir Aahs, Unnamed-001"
V:4 bass 
V:1
 G2 [Ec]4 [Fc]2 [Gc]4 | [Ad]2 d2 c2 [FA]2 [EG]4 | [FA]2 [GB]4 G2 [Ec]4 | %3
w: By~Martin~Shaw,~1915 * * *|||
 [^FA]2 [DG]4- [DG]4- [DG]3/2 z/ | G2 [Gc]4 [Gc]2 A2 B2 | [Gc]2 [^Fd]4 G2 [Gc]4 | %6
w: |||
 [Gc]2 A2 B2 [Ec]2 [Gd]4 | [DG]2 [FA]4 [EG]2 [DF]4 | [^CE]2 D4 [EG]2 [FA]4 | z2 .F4 z6 | z12 | %11
w: |||||
 [Gc]2 [Ac]4 [Ad]2 c2 B2 | [DA]2 [EG]4 [B,F]2 [CE]4- | [CE]2 [CG]4- [CG]3/2 z/ [CA]4- | %14
w: |||
 [CA]2 [GB]4- [GB]3/2 z/ [Gc]4- | [Gc]6 z6 |] %16
w: ||
V:2
 x12 | z2 G4 z6 | x12 | x12 | z6 z2 F4 | x12 | z2 F4 z6 | x12 | x12 | %9
 [EG]2 D2- [DE]2 [CF]2 [B,D]4- | [B,D]2 G4- G3/2 z/ [Gc]4 | z6 z2 G4 | x12 | x12 | x12 | x12 |] %16
V:3
 G,2 [C,C]4 [D,C]2 [E,C]4 | [F,A,]2[K:treble] [G,D]4 [A,C]2 [CE]2 [B,D]2 | %2
 [A,C]2[K:bass] [G,D]4 [G,B,]2 [A,C]4 | [D,D]2 [G,B,]4- [G,B,]4- [G,B,]3/2 z/ | %4
 [G,B,]2 [C,E]4 [C,E]2 [F,C]4 | [E,C]2 [D,A,]4 [G,B,]2 [E,C]4 | [E,C]2 [F,D]4 [A,C]2 [G,B,]4 | %7
 [G,B,]2 [F,C]4 [C,C]2 [D,A,]4 | [A,,A,]2 [D,F,]4 [C,C]2 [F,C]4 | [C,C]2 [D,A,]4 [F,A,]2 [G,B,]4- | %10
 [G,B,]2 G,4- G,3/2 z/[K:treble] [CE]4 | [CE]2 [A,E]4 [F,F]2 [G,D]4 | %12
 [F,A,]2 B,2 C2 [D,D]2 [C,G,]4- | [C,G,]2 [E,C]4- [E,C]3/2 z/ [F,F]4- | %14
 [F,F]2 [G,D]4- [G,D]3/2 z/ [C,E]4- | [C,E]6 z6 |] %16
V:4
 x12 | x2[K:treble] x10 | x2[K:bass] x10 | x12 | x12 | x12 | x12 | x12 | x12 | x12 | %10
 x8[K:treble] x4 | x12 | z2 E,4 z6 | x12 | x12 | x12 |] %16

